icons/paste-without-attribute-16.svg

<?xml version="1.0" encoding="UTF-8"?><svg id="icons" xmlns="http://www.w3.org/2000/svg" viewBox="0 0 16 16"><defs><style>.cls-1{fill:none;}.cls-1,.cls-2{stroke-width:0px;}</style></defs><rect class="cls-1" width="16" height="16"/><path class="cls-2" d="M.35352,5.64648l-.35352.35352v.70703l1,1v7.29297h7.29297l1,1h.70703l.35352-.35352L.35352,5.64648ZM2,14v-5.29297l1.29297,1.29297h-.29297v1h1v-.29297l1.29297,1.29297h-.29297v1h1.29297l1,1H2ZM3,12h1v1h-1v-1ZM2.47461,6h8.52539v8.52539l-1-1v-6.52539H3.47461l-1-1ZM12,2v-1h-2.2774c-.34644-.59528-.98419-1-1.7226-1s-1.37616.40472-1.7226,1h-2.2774v1h-2v3h1v-2h1v1h8v-1h1v10h-1v1h2V2h-2ZM11,3h-6v-1h2v-.31787c0-.37671.30542-.68213.68213-.68213h.63574c.37671,0,.68213.30542.68213.68213v.31787h2v1ZM7.47461,11l-1-1h2.52539v1h-1.52539ZM9,9h-3.52539l-.47461-.47461v-.52539h4v1Z"/></svg>

<svg xmlns="http://www.w3.org/2000/svg" viewBox="0 0 16 16"><path stroke-width="0" fill="none" d="M0 0h16v16H0z"/><path d="M.354 5.646L0 6v.707l1 1V15h7.293l1 1H10l.354-.354-10-10zM2 14V8.707L3.293 10H3v1h1v-.293L5.293 12H5v1h1.293l1 1H2zm1-2h1v1H3v-1zm-.525-6H11v8.525l-1-1V7H3.475l-1-1zM12 2V1H9.723C9.376.405 8.738 0 8 0S6.624.405 6.277 1H4v1H2v3h1V3h1v1h8V3h1v10h-1v1h2V2h-2zm-1 1H5V2h2v-.318C7 1.305 7.305 1 7.682 1h.636c.377 0 .682.305.682.682V2h2v1zm-3.525 8l-1-1H9v1H7.475zM9 9H5.475L5 8.525V8h4v1z" stroke-width="0"/></svg>
